X: 139
T: The Little Swallow
N:"Tenderly"
B:O'Neill's 139
Z:Transcribed by henrik.norbeck@mailbox.swipnet.se
M:3/4
L:1/8
K:G
(3d/e/f/ gG \
| (GF) (ED) .G.G | .B(B/c/) .d(d/4e/4f/) gd \
| ec .A(F/A/) .G.G | G2- G/(G/B/d/) gG |
(GF) (ED) .G.G | .B(B/c/) .d((3d/e/f/) .g(g/d/) \
| (ed/c/) (B/A/G/F/) GG | G3 (G/A/) Bd |
g2 .f(a/g/) (f/e/g/e/) | d>B .G(G/A/) Bd \
| g2 (f/a/g/f/) ee | e2 (e/d/)(e/f/) gG |
(GF) (ED) .G.G | B>c .d(d/4e/4f/) g>d \
| (f/e/d/c/) (B/A/G/F/) (.G.G) | G2- G(G/A/) (Bd) |
g2 ~f(a/g/) (f/e/g/e/) | {^c}d>B .G(G/A/) (Bd) \
| g2 (f/a/g/f/) ee | e2 (e/d/e/f/) gG |
(GF) (ED) .G.G | B>c .d(d/4e/4f/) gd \
| ec .A(F/A/) GG | G2- G z z2 ||
"Cronan."Tg2 {fg}(a/g/)e/d/ {ef}(ed/B/) | {^c}d2 (e/d/B/A/) {Bc}(BA/G/) \
| TG2 (G/E/)(D/E/) .G.G | G2- G2 ||


